Newaita-dark/actions/24/distribute-vertical-margin.svg

<?xml version="1.0" encoding="UTF-8"?>
<svg xmlns="http://www.w3.org/2000/svg" xmlns:xlink="http://www.w3.org/1999/xlink" width="24pt" height="24pt" viewBox="0 0 24 24" version="1.1">
<g id="surface1">
<path style=" stroke:none;fill-rule:nonzero;fill:rgb(74.117649%,74.117649%,74.117649%);fill-opacity:1;" d="M 22.824219 2.667969 C 22.824219 1.84375 22.160156 1.179688 21.335938 1.179688 L 2.480469 1.179688 C 1.65625 1.179688 0.992188 1.84375 0.992188 2.667969 L 0.992188 21.523438 C 0.992188 22.347656 1.65625 23.011719 2.480469 23.011719 L 21.335938 23.011719 C 22.160156 23.011719 22.824219 22.347656 22.824219 21.523438 Z M 21.335938 3.660156 L 21.335938 20.527344 C 21.335938 21.078125 20.890625 21.523438 20.339844 21.523438 L 3.472656 21.523438 C 2.921875 21.523438 2.480469 21.078125 2.480469 20.527344 L 2.480469 3.660156 C 2.480469 3.109375 2.921875 2.667969 3.472656 2.667969 L 20.339844 2.667969 C 20.890625 2.667969 21.335938 3.109375 21.335938 3.660156 Z M 21.335938 3.660156 "/>
<path style=" stroke:none;fill-rule:nonzero;fill:rgb(47.058824%,56.470591%,61.176473%);fill-opacity:1;" d="M 18.851562 6.636719 C 18.851562 5.8125 18.191406 5.148438 17.363281 5.148438 L 6.449219 5.148438 C 5.625 5.148438 4.960938 5.8125 4.960938 6.636719 L 4.960938 9.613281 C 4.960938 10.4375 5.625 11.101562 6.449219 11.101562 L 17.363281 11.101562 C 18.191406 11.101562 18.851562 10.4375 18.851562 9.613281 Z M 17.363281 7.132812 L 17.363281 9.117188 C 17.363281 9.394531 17.144531 9.613281 16.867188 9.613281 L 6.945312 9.613281 C 6.671875 9.613281 6.449219 9.394531 6.449219 9.117188 L 6.449219 7.132812 C 6.449219 6.859375 6.671875 6.636719 6.945312 6.636719 L 16.867188 6.636719 C 17.144531 6.636719 17.363281 6.859375 17.363281 7.132812 Z M 17.363281 7.132812 "/>
<path style=" stroke:none;fill-rule:nonzero;fill:rgb(47.058824%,56.470591%,61.176473%);fill-opacity:1;" d="M 18.851562 14.574219 C 18.851562 13.75 18.191406 13.085938 17.363281 13.085938 L 6.449219 13.085938 C 5.625 13.085938 4.960938 13.75 4.960938 14.574219 L 4.960938 17.550781 C 4.960938 18.378906 5.625 19.039062 6.449219 19.039062 L 17.363281 19.039062 C 18.191406 19.039062 18.851562 18.378906 18.851562 17.550781 Z M 17.363281 15.070312 L 17.363281 17.054688 C 17.363281 17.332031 17.144531 17.550781 16.867188 17.550781 L 6.945312 17.550781 C 6.671875 17.550781 6.449219 17.332031 6.449219 17.054688 L 6.449219 15.070312 C 6.449219 14.796875 6.671875 14.574219 6.945312 14.574219 L 16.867188 14.574219 C 17.144531 14.574219 17.363281 14.796875 17.363281 15.070312 Z M 17.363281 15.070312 "/>
</g>
</svg>

<svg xmlns="http://www.w3.org/2000/svg" width="32" height="32" viewBox="0 0 24 24"><path d="M22.824 2.668c0-.824-.664-1.488-1.488-1.488H2.48c-.824 0-1.488.664-1.488 1.488v18.855c0 .825.664 1.489 1.488 1.489h18.856c.824 0 1.488-.664 1.488-1.489zm-1.488.992v16.867c0 .551-.445.996-.996.996H3.473a.992.992 0 0 1-.993-.996V3.66c0-.55.442-.992.993-.992H20.34c.55 0 .996.441.996.992zm0 0" fill="#bdbdbd"/><path d="M18.852 6.637c0-.824-.66-1.489-1.489-1.489H6.45c-.824 0-1.488.665-1.488 1.489v2.976c0 .825.664 1.489 1.488 1.489h10.914c.828 0 1.489-.665 1.489-1.489zm-1.489.496v1.984a.492.492 0 0 1-.496.496H6.945a.494.494 0 0 1-.496-.496V7.133c0-.274.223-.496.496-.496h9.922c.278 0 .496.222.496.496zm0 0M18.852 14.574c0-.824-.66-1.488-1.489-1.488H6.45c-.824 0-1.488.664-1.488 1.488v2.977c0 .828.664 1.488 1.488 1.488h10.914a1.48 1.48 0 0 0 1.489-1.488zm-1.489.496v1.985a.492.492 0 0 1-.496.496H6.945a.494.494 0 0 1-.496-.496V15.07c0-.273.223-.496.496-.496h9.922c.278 0 .496.223.496.496zm0 0" fill="#78909c"/></svg>
